symbolic/32x32/apps/system-help.svg

<svg xmlns="http://www.w3.org/2000/svg" width="32" height="32" version="1">
 <path style="opacity:0.2" d="M 16.087431,3.4995109 C 14.3344,3.4905332 12.548872,3.8261941 10.823517,4.5431343 3.9220973,7.4110299 0.67496682,15.275064 3.543133,22.176484 c 2.867828,6.901418 10.731931,10.148549 17.63335,7.280383 6.90142,-2.86749 10.14855,-10.73193 7.280384,-17.63335 C 26.306248,6.6473861 21.345173,3.5265117 16.087431,3.4995109 Z M 16,9.8944799 A 7.105521,7.105521 0 0 1 23.105521,17 7.105521,7.105521 0 0 1 16,24.105522 7.105521,7.105521 0 0 1 8.8944785,17 7.105521,7.105521 0 0 1 16,9.8944799 Z"/>
 <path style="fill:#e4e4e4" d="M 16.087431,2.4998429 C 14.3344,2.4908652 12.548872,2.8265261 10.823517,3.5434663 3.9220973,6.4113619 0.67496682,14.275396 3.543133,21.176816 c 2.867828,6.901418 10.731931,10.148549 17.63335,7.280383 6.90142,-2.86749 10.14855,-10.73193 7.280384,-17.63335 C 26.306248,5.6477181 21.345173,2.5268437 16.087431,2.4998429 Z M 16,8.8948119 A 7.105521,7.105521 0 0 1 23.105521,16.000332 7.105521,7.105521 0 0 1 16,23.105854 7.105521,7.105521 0 0 1 8.8944785,16.000332 7.105521,7.105521 0 0 1 16,8.8948119 Z"/>
 <path style="opacity:0.2;fill:#ffffff" d="M 16.087891 2.5 C 14.33486 2.4910223 12.549574 2.8260286 10.824219 3.5429688 C 5.4692409 5.7682381 2.3285625 11.003376 2.5234375 16.460938 C 2.7214875 11.373072 5.7970767 6.6320054 10.824219 4.5429688 C 12.549574 3.8260285 14.33486 3.4910223 16.087891 3.5 C 21.345633 3.5270008 26.306412 6.6480879 28.457031 11.824219 C 29.099563 13.370288 29.420164 14.96334 29.476562 16.539062 C 29.550402 14.64211 29.235964 12.698496 28.457031 10.824219 C 26.306412 5.6480879 21.345633 2.5270008 16.087891 2.5 z M 23.082031 16.457031 A 7.105521 7.105521 0 0 1 16 23.105469 A 7.105521 7.105521 0 0 1 8.9179688 16.544922 A 7.105521 7.105521 0 0 0 8.8945312 17 A 7.105521 7.105521 0 0 0 16 24.105469 A 7.105521 7.105521 0 0 0 23.105469 17 A 7.105521 7.105521 0 0 0 23.082031 16.457031 z"/>
 <path style="opacity:0.2" d="m 16.089844,1.9998286 c -1.748556,-0.00832 -3.522815,0.2847033 -5.242188,0.8964844 a 1.3170564,1.2273531 0 0 0 -0.761718,1.5839844 l 2.339843,5.7226566 A 1.3170564,1.2273531 0 0 0 14.125,10.913891 c 0.597856,-0.212759 1.233096,-0.32147 1.873047,-0.322266 0.639504,0.0023 1.272215,0.11231 1.869141,0.326172 a 1.3170564,1.2273531 0 0 0 1.703124,-0.707031 l 2.34375,-5.7324218 A 1.3170564,1.2273531 0 0 0 21.150391,2.8943598 C 19.553273,2.3275147 17.843081,2.0081708 16.089844,1.9998286 Z M 3.0351562,10.999829 A 1.2273531,1.3170564 0 0 0 1.8964844,11.847485 C 1.2847024,13.566858 0.9917,15.341117 1,17.089673 c 0.00834,1.753237 0.3276862,3.463429 0.8945312,5.060547 a 1.2273531,1.3170564 0 0 0 1.5839844,0.763671 l 5.7324219,-2.34375 A 1.2273531,1.3170564 0 0 0 9.9179688,18.867017 C 9.7041067,18.270091 9.5940969,17.63738 9.5917969,16.997876 9.5925929,16.357925 9.7013035,15.722685 9.9140625,15.124829 A 1.2273531,1.3170564 0 0 0 9.203125,13.42561 L 3.4804688,11.085767 a 1.2273531,1.3170564 0 0 0 -0.4453126,-0.08594 z m 25.9296878,0 a 1.2273531,1.3170564 0 0 0 -0.445313,0.08594 l -5.722656,2.339843 a 1.2273531,1.3170564 0 0 0 -0.710937,1.699219 c 0.212758,0.597856 0.321469,1.233096 0.322265,1.873047 -0.0023,0.639504 -0.11231,1.272215 -0.326172,1.869141 a 1.2273531,1.3170564 0 0 0 0.707031,1.703124 l 5.732422,2.34375 A 1.2273531,1.3170564 0 0 0 30.105469,22.15022 C 30.672314,20.553102 30.991657,18.84291 31,17.089673 31.0083,15.341117 30.715297,13.566858 30.103516,11.847485 a 1.2273531,1.3170564 0 0 0 -1.138672,-0.847656 z m -10.582032,12 a 1.3170564,1.2273531 0 0 0 -0.515624,0.08203 c -0.596926,0.213862 -1.229637,0.323872 -1.869141,0.326172 -0.639951,-7.96e-4 -1.275191,-0.109507 -1.873047,-0.322265 a 1.3170564,1.2273531 0 0 0 -1.699219,0.710937 l -2.339843,5.722656 a 1.3170564,1.2273531 0 0 0 0.761718,1.583985 c 1.719373,0.611782 3.493632,0.904784 5.242188,0.896484 1.753237,-0.0083 3.463429,-0.327686 5.060547,-0.894531 a 1.3170564,1.2273531 0 0 0 0.763671,-1.583985 l -2.34375,-5.732422 a 1.3170564,1.2273531 0 0 0 -1.1875,-0.789062 z"/>
 <path style="fill:#e74c3c" d="M 16.089844 1 C 14.341288 0.99168 12.567029 1.2847033 10.847656 1.8964844 A 1.3170564 1.2273531 0 0 0 10.085938 3.4804688 L 12.425781 9.203125 A 1.3170564 1.2273531 0 0 0 14.125 9.9140625 C 14.722856 9.7013035 15.358096 9.5925929 15.998047 9.5917969 C 16.637551 9.5940969 17.270262 9.7041068 17.867188 9.9179688 A 1.3170564 1.2273531 0 0 0 19.570312 9.2109375 L 21.914062 3.4785156 A 1.3170564 1.2273531 0 0 0 21.150391 1.8945312 C 19.553273 1.3276861 17.843081 1.0083422 16.089844 1 z M 3.0351562 10 A 1.2273531 1.3170564 0 0 0 1.8964844 10.847656 C 1.2847024 12.567029 0.9917 14.341288 1 16.089844 C 1.008342 17.843081 1.3276862 19.553273 1.8945312 21.150391 A 1.2273531 1.3170564 0 0 0 3.4785156 21.914062 L 9.2109375 19.570312 A 1.2273531 1.3170564 0 0 0 9.9179688 17.867188 C 9.7041067 17.270262 9.5940969 16.637551 9.5917969 15.998047 C 9.5925929 15.358096 9.7013035 14.722856 9.9140625 14.125 A 1.2273531 1.3170564 0 0 0 9.203125 12.425781 L 3.4804688 10.085938 A 1.2273531 1.3170564 0 0 0 3.0351562 10 z M 28.964844 10 A 1.2273531 1.3170564 0 0 0 28.519531 10.085938 L 22.796875 12.425781 A 1.2273531 1.3170564 0 0 0 22.085938 14.125 C 22.298696 14.722856 22.407407 15.358096 22.408203 15.998047 C 22.405903 16.637551 22.295893 17.270262 22.082031 17.867188 A 1.2273531 1.3170564 0 0 0 22.789062 19.570312 L 28.521484 21.914062 A 1.2273531 1.3170564 0 0 0 30.105469 21.150391 C 30.672314 19.553273 30.991657 17.843081 31 16.089844 C 31.0083 14.341288 30.715297 12.567029 30.103516 10.847656 A 1.2273531 1.3170564 0 0 0 28.964844 10 z M 18.382812 22 A 1.3170564 1.2273531 0 0 0 17.867188 22.082031 C 17.270262 22.295893 16.637551 22.405903 15.998047 22.408203 C 15.358096 22.407407 14.722856 22.298696 14.125 22.085938 A 1.3170564 1.2273531 0 0 0 12.425781 22.796875 L 10.085938 28.519531 A 1.3170564 1.2273531 0 0 0 10.847656 30.103516 C 12.567029 30.715298 14.341288 31.0083 16.089844 31 C 17.843081 30.991658 19.553273 30.672314 21.150391 30.105469 A 1.3170564 1.2273531 0 0 0 21.914062 28.521484 L 19.570312 22.789062 A 1.3170564 1.2273531 0 0 0 18.382812 22 z"/>
</svg>

<svg xmlns="http://www.w3.org/2000/svg" width="32" height="32" version="1"><path style="opacity:.2" d="M16.087 3.5a13.511 13.511 0 0 0-5.263 1.043 13.46 13.46 0 0 0-7.28 17.633 13.46 13.46 0 0 0 17.632 7.28 13.46 13.46 0 0 0 7.28-17.632A13.46 13.46 0 0 0 16.088 3.5zM16 9.894A7.106 7.106 0 0 1 23.106 17 7.106 7.106 0 0 1 16 24.106 7.106 7.106 0 0 1 8.894 17 7.106 7.106 0 0 1 16 9.894z"/><path style="fill:#e4e4e4" d="M16.087 2.5a13.511 13.511 0 0 0-5.263 1.043 13.46 13.46 0 0 0-7.28 17.634 13.46 13.46 0 0 0 17.632 7.28 13.46 13.46 0 0 0 7.28-17.633A13.46 13.46 0 0 0 16.088 2.5zM16 8.895A7.106 7.106 0 0 1 23.106 16 7.106 7.106 0 0 1 16 23.106 7.106 7.106 0 0 1 8.894 16 7.106 7.106 0 0 1 16 8.895z"/><path style="opacity:.2;fill:#fff" d="M16.088 2.5a13.51 13.51 0 0 0-5.264 1.043 13.45 13.45 0 0 0-8.3 12.918 13.448 13.448 0 0 1 8.3-11.918A13.51 13.51 0 0 1 16.088 3.5a13.46 13.46 0 0 1 12.369 8.324c.643 1.546.963 3.14 1.02 4.715.073-1.897-.241-3.84-1.02-5.715A13.46 13.46 0 0 0 16.087 2.5zm6.994 13.957A7.106 7.106 0 0 1 16 23.105a7.106 7.106 0 0 1-7.082-6.56 7.106 7.106 0 0 0-.023.455A7.106 7.106 0 0 0 16 24.105 7.106 7.106 0 0 0 23.105 17a7.106 7.106 0 0 0-.023-.543z"/><path style="opacity:.2" d="M16.09 2a15.415 15.415 0 0 0-5.242.896 1.317 1.227 0 0 0-.762 1.584l2.34 5.723a1.317 1.227 0 0 0 1.699.71 5.614 5.614 0 0 1 1.873-.321c.64.002 1.272.112 1.87.326a1.317 1.227 0 0 0 1.702-.707l2.344-5.733a1.317 1.227 0 0 0-.764-1.584A15.36 15.36 0 0 0 16.09 2zM3.035 11a1.227 1.317 0 0 0-1.139.847A15.416 15.416 0 0 0 1 17.09a15.36 15.36 0 0 0 .895 5.06 1.227 1.317 0 0 0 1.584.764L9.21 20.57a1.227 1.317 0 0 0 .707-1.703 5.603 5.603 0 0 1-.326-1.87c0-.64.11-1.274.322-1.872a1.227 1.317 0 0 0-.71-1.7l-5.724-2.34A1.227 1.317 0 0 0 3.035 11zm25.93 0a1.227 1.317 0 0 0-.445.086l-5.723 2.34a1.227 1.317 0 0 0-.711 1.699c.213.598.321 1.233.322 1.873a5.603 5.603 0 0 1-.326 1.869 1.227 1.317 0 0 0 .707 1.703l5.732 2.344a1.227 1.317 0 0 0 1.584-.764A15.36 15.36 0 0 0 31 17.09a15.416 15.416 0 0 0-.896-5.243 1.227 1.317 0 0 0-1.14-.847zM18.383 23a1.317 1.227 0 0 0-.516.082 5.603 5.603 0 0 1-1.869.326c-.64 0-1.275-.11-1.873-.322a1.317 1.227 0 0 0-1.7.71l-2.34 5.723a1.317 1.227 0 0 0 .763 1.584c1.719.612 3.493.905 5.242.897a15.359 15.359 0 0 0 5.06-.895 1.317 1.227 0 0 0 .764-1.584L19.57 23.79a1.317 1.227 0 0 0-1.187-.79z"/><path style="fill:#e74c3c" d="M16.09 1a15.415 15.415 0 0 0-5.242.896 1.317 1.227 0 0 0-.762 1.584l2.34 5.723a1.317 1.227 0 0 0 1.699.711 5.614 5.614 0 0 1 1.873-.322c.64.002 1.272.112 1.87.326a1.317 1.227 0 0 0 1.702-.707l2.344-5.732a1.317 1.227 0 0 0-.764-1.584A15.36 15.36 0 0 0 16.09 1zM3.035 10a1.227 1.317 0 0 0-1.139.848A15.416 15.416 0 0 0 1 16.09a15.36 15.36 0 0 0 .895 5.06 1.227 1.317 0 0 0 1.584.764L9.21 19.57a1.227 1.317 0 0 0 .707-1.703 5.603 5.603 0 0 1-.326-1.869c0-.64.11-1.275.322-1.873a1.227 1.317 0 0 0-.71-1.7l-5.724-2.34A1.227 1.317 0 0 0 3.035 10zm25.93 0a1.227 1.317 0 0 0-.445.086l-5.723 2.34a1.227 1.317 0 0 0-.711 1.699c.213.598.321 1.233.322 1.873a5.603 5.603 0 0 1-.326 1.87 1.227 1.317 0 0 0 .707 1.702l5.732 2.344a1.227 1.317 0 0 0 1.584-.764A15.36 15.36 0 0 0 31 16.09a15.416 15.416 0 0 0-.896-5.242 1.227 1.317 0 0 0-1.14-.848zM18.383 22a1.317 1.227 0 0 0-.516.082 5.603 5.603 0 0 1-1.869.326c-.64 0-1.275-.11-1.873-.322a1.317 1.227 0 0 0-1.7.71l-2.34 5.724a1.317 1.227 0 0 0 .763 1.584c1.719.611 3.493.904 5.242.896a15.36 15.36 0 0 0 5.06-.895 1.317 1.227 0 0 0 .764-1.584L19.57 22.79A1.317 1.227 0 0 0 18.383 22z"/></svg>
